assets/icons/qvision/dvr.svg

<svg xmlns="http://www.w3.org/2000/svg" height="24" viewBox="0 0 24 24" width="24"><path d="M0 0h24v24H0z" fill="none"/><path d="M21 3H3c-1.1 0-2 .9-2 2v12c0 1.1.9 2 2 2h5v2h8v-2h5c1.1 0 1.99-.9 1.99-2L23 5c0-1.1-.9-2-2-2zm0 14H3V5h18v12zm-2-9H8v2h11V8zm0 4H8v2h11v-2zM7 8H5v2h2V8zm0 4H5v2h2v-2z"/></svg>

<svg width="24" height="24" viewBox="0 0 24 24" fill="none" xmlns="http://www.w3.org/2000/svg">
<g clip-path="url(#clip0_147_2388)">
<path d="M21 3H3C1.9 3 1 3.9 1 5V17C1 18.1 1.9 19 3 19H8V21H16V19H21C22.1 19 22.99 18.1 22.99 17L23 5C23 3.9 22.1 3 21 3ZM21 17H3V5H21V17ZM19 8H8V10H19V8ZM19 12H8V14H19V12ZM7 8H5V10H7V8ZM7 12H5V14H7V12Z" fill="#323232"/>
</g>
<defs>
<clipPath id="clip0_147_2388">
<rect width="24" height="24" fill="white"/>
</clipPath>
</defs>
</svg>
